!!!COM: Anon.
!!!OTL: Procurans Odium
!!!SCA: Folio 226-226'
!!!YOR: from 'Thirty-Five Conductus for Two and Three Voices', p.34
!!!YOR: edited by Janet Knapp, Collegium Musicum No. 6, Yale University (1965)
!!!YOR: from the School of Notre Dame; circa 1170-1240
!!!YOO: Yale University
!!!YOY: 1965
**kern	**kern	**kern
*M6/8	*M6/8	*M6/8
=1	=1	=1
8A	8F	8c
4c	8G	16B
.	.	16A
.	8F	8G
4.d	16E	8A
.	16D	.
.	8D	4r
.	8E	.
=2	=2	=2
8c	16F	8A
.	16G	.
16B	8F	4c
16A	.	.
8G	8E	.
8A	8D	8d
4r	4r	4r
=3	=3	=3
8F	8A	8c
8G	4c	16B
.	.	16A
8F	.	8G
16E	8d	8A
16D	.	.
8D	4r	4r
8E	.	.
=4	=4	=4
16F	8c	8A
16G	.	.
8F	16B	4c
.	16A	.
8E	8G	.
8D	8A	8d
4r	4r	4r
=5	=5	=5
8A	8F	8c
4c	8G	16B
.	.	16A
.	8F	8G
4.d	16E	8A
.	16D	.
.	8D	4r
.	8E	.
=6	=6	=6
8c	16F	8A
.	16G	.
16B	8F	4c
16A	.	.
8G	8E	.
8A	8D	8d
4r	4r	4r
=7	=7	=7
8F	8A	8c
8G	4c	16B
.	.	16A
8F	.	8G
16E	8d	8A
16D	.	.
8D	4r	4r
8E	.	.
=8	=8	=8
16F	8c	8A
16G	.	.
8F	16B	4c
.	16A	.
8E	8G	.
8D	8A	8d
4r	4r	4r
=9	=9	=9
8C	8G	8c
4D	8A	4d
.	8G	.
8F	8F	8c
4r	8F	4r
.	8E	.
=10	=10	=10
8G	16D	8c
.	16C	.
8A	8C	4d
8G	8D	.
8F	8F	8c
4r	4r	4r
=11	=11	=11
8F	16A	8c
.	16G	.
4A	4F	4d
8c	4.A	8c
8c	.	8c
8d	.	8B
=12	=12	=12
8c	8c	8A
16B	8c	4c
16A	.	.
8G	8d	.
8F	8c	8c
4r	4r	4r
=13	=13	=13
8G	8G	8G
8A	8A	8A
8B-	8G	8B-
4.A	4.F	4.A
=14	=14	=14
8G	8G	8G
8A	4A	8A
8G	.	8B-
8F	8A	8A
4r	4r	4r
=15	=15	=15
8E	8C	8G
4F	4D	8A
.	.	8B-
8G	4.E	4.A
8G	.	.
8F	.	.
=16	=16	=16
16E	8F	8G
16D	.	.
4C	16G	8A
.	16F	.
.	8E	8B-
8D	8D	8A
4r	4r	4r
=17	=17	=17
8C	8G	8c
4D	8A	4d
.	8G	.
8F	8F	8c
4r	8F	4r
.	8E	.
=18	=18	=18
8G	16D	8c
.	16C	.
8A	8C	4d
8G	8D	.
8F	8F	8c
4r	4r	4r
=19	=19	=19
8F	16A	8c
.	16G	.
4A	4F	4d
8c	4.A	8c
8c	.	8c
8d	.	8B
=20	=20	=20
8c	8c	8A
16B	8c	4c
16A	.	.
8G	8d	.
8F	8c	8c
4r	4r	4r
=21	=21	=21
8G	8A	8A
8A	16G	4c
.	16F	.
8B-	8E	.
8A	4.D	8d
8A	.	8d
8G	.	8c
=22	=22	=22
{24F	8F	16B-
24E	.	.
.	.	16A
24D}	.	.
4C	16G	8B-
.	16A	.
.	8B-	8c
8D	8A	8d
4r	4r	4r
==	==	==
*-	*-	*-
!!!ENC: David Huron
!!!YEC: Copyright 1987, David Huron
!!!EEV: 1.0
